assets/git.svg

<svg xmlns="http://www.w3.org/2000/svg" fill="none" viewBox="0 0 28 28">
  <path fill="#2A2238" d="M27.47 12.7522 15.2443.528264c-.1674-.167475-.3662-.300328-.5849-.390969C14.4406.0466534 14.2062 0 13.9694 0c-.2368 0-.4713.0466534-.69.137295-.2188.090641-.4175.223494-.5849.390969L10.1569 3.06581l3.2201 3.22006c.3798-.12967.7883-.14995 1.1791-.05854.3907.0914.7479.29082 1.0307.57548.2829.28467.48.64311.5689 1.03443.0889.39132.0659.79975-.0662 1.17867l3.1028 3.10459c.4591-.1617.9595-.1622 1.4189-.0014.4593.1607.8503.4731 1.1084.8857.2582.4125.3681.9007.3118 1.3841-.0564.4834-.2757.9332-.6218 1.2754-.3504.3525-.8123.5725-1.3068.6222-.4945.0498-.991-.0736-1.4046-.3492-.4137-.2756-.7188-.6863-.8632-1.1619-.1445-.4756-.1194-.9866.0711-1.4457l-2.8928-2.8945v7.6179c.4397.2176.7915.5794.9968 1.025.2053.4456.2517.9481.1314 1.4238-.1203.4757-.3999.8957-.7924 1.1902-.3924.2944-.8739.4455-1.3642.428-.4903-.0175-.9598-.2025-1.3303-.5242-.3704-.3218-.6194-.7607-.7054-1.2437-.0861-.4831-.004-.981.2326-1.4108.2366-.4298.6133-.7656 1.0674-.9513v-7.6879c-.262-.1074-.5001-.2655-.7007-.46536-.2006-.19983-.3597-.43739-.468-.69898-.1083-.26159-.1638-.54204-.1633-.82518.0006-.28314.0572-.56338.1665-.82454L8.91091 4.31358.528264 12.6962c-.167475.1674-.300328.3662-.390969.5849C.0466534 13.4999 0 13.7343 0 13.9711c0 .2368.0466534.4713.137295.69.090641.2188.223494.4175.390969.5849L12.754 27.4717c.1674.1675.3661.3004.5849.391.2187.0906.4532.1373.69.1373.2368 0 .4712-.0467.69-.1373.2187-.0906.4175-.2235.5849-.391l12.1679-12.1679c.3378-.3383.5276-.7969.5276-1.2749 0-.4781-.1898-.9366-.5276-1.2749"/>
</svg>

<svg width="28" height="28" viewBox="0 0 28 28" fill="none" xmlns="http://www.w3.org/2000/svg">
<path d="M27.47 12.7522L15.2443 0.528264C15.0769 0.360789 14.8781 0.227936 14.6594 0.137295C14.4406 0.0466534 14.2062 0 13.9694 0C13.7326 0 13.4981 0.0466534 13.2794 0.137295C13.0606 0.227936 12.8619 0.360789 12.6945 0.528264L10.1569 3.06581L13.377 6.28587C13.7568 6.1562 14.1653 6.13592 14.5561 6.22733C14.9468 6.31873 15.304 6.51815 15.5868 6.80281C15.8697 7.08748 16.0668 7.44592 16.1557 7.83724C16.2446 8.22856 16.2216 8.63699 16.0895 9.01591L19.1923 12.1205C19.6514 11.9588 20.1518 11.9583 20.6112 12.1191C21.0705 12.2798 21.4615 12.5922 21.7196 13.0048C21.9778 13.4173 22.0877 13.9055 22.0314 14.3889C21.975 14.8723 21.7557 15.3221 21.4096 15.6643C21.0592 16.0168 20.5973 16.2368 20.1028 16.2865C19.6083 16.3363 19.1118 16.2129 18.6982 15.9373C18.2845 15.6617 17.9794 15.251 17.835 14.7754C17.6905 14.2998 17.7156 13.7888 17.9061 13.3297L15.0133 10.4352V18.0531C15.453 18.2707 15.8048 18.6325 16.0101 19.0781C16.2154 19.5237 16.2618 20.0262 16.1415 20.5019C16.0212 20.9776 15.7416 21.3976 15.3491 21.6921C14.9567 21.9865 14.4752 22.1376 13.9849 22.1201C13.4946 22.1026 13.0251 21.9176 12.6546 21.5959C12.2842 21.2741 12.0352 20.8352 11.9492 20.3522C11.8631 19.8691 11.9452 19.3712 12.1818 18.9414C12.4184 18.5116 12.7951 18.1758 13.2492 17.9901V10.3022C12.9872 10.1948 12.7491 10.0367 12.5485 9.83684C12.3479 9.63701 12.1888 9.39945 12.0805 9.13786C11.9722 8.87627 11.9167 8.59582 11.9172 8.31268C11.9178 8.02954 11.9744 7.7493 12.0837 7.48814L8.91091 4.31358L0.528264 12.6962C0.360789 12.8636 0.227936 13.0624 0.137295 13.2811C0.0466534 13.4999 0 13.7343 0 13.9711C0 14.2079 0.0466534 14.4424 0.137295 14.6611C0.227936 14.8799 0.360789 15.0786 0.528264 15.246L12.754 27.4717C12.9214 27.6392 13.1201 27.7721 13.3389 27.8627C13.5576 27.9533 13.7921 28 14.0289 28C14.2657 28 14.5001 27.9533 14.7189 27.8627C14.9376 27.7721 15.1364 27.6392 15.3038 27.4717L27.4717 15.3038C27.8095 14.9655 27.9993 14.5069 27.9993 14.0289C27.9993 13.5508 27.8095 13.0923 27.4717 12.754" fill="#2A2238"/>
</svg>
